X:4
T:Песнь 5
M:4/4
L:1/4
Q:1/4=120
K:F
V:1 clef=treble name="Soprano"
%%MIDI program 40
V:2 clef=treble name="Alto"
%%MIDI program 40
V:3 clef=bass octave=-1 name="Tenor"
%%MIDI program 40
V:4 clef=bass octave=-2 name="Bass"
%%MIDI program 40
%%score [(1 2) (3 4)]
%%tempo { 40, 60, *80, 100, 120, 140 }
%%player_top
[V:1]ABc2cdcG/A/G2 | EGFEFGG
s: "Песнь 5"
[V:2]FGA2ABAG/F/E2 | CEDCDEE
w:Бог сый ми-ра, О-тец щед-рот, ве-ли-ка-го со-ве-та
[V:3]ccf2fffcc2 | ccccccc
[V:4]fff2ffffc2 | ccccccc
[V:1]GF(GA)BGA2 | c2ABccc
[V:2]ED(EF)GEF2 | A2FGAAA
w:Тво-е-го * Ан-ге-ла, мир по-да-ва-ю-ща
[V:3]ccc2ccc2 | f2ccfff
[V:4]ccc2ccf2 | f2fffff
[V:1]B(cd)cB/A/G2 | EEEFG2FEF2G
[V:2]G(AB)AG/F/E2 | ^CCCDE2DCD2E
w:пос-лал е-си нам; тем, бо-го-ра-зу-ми-я ксве-ту
[V:3]ff2fcc2 | AAAAA2AAA2c
[V:4]ff2ffc2 | AAAAA2AAd2c
[V:1]AB/A/GA2 | AcBA2AAAB2 |
[V:2]FG/F/EF2 | FAG^F2FFFG2 |
w:на-ставль--ше-ся, от но-щи ут-ре-ню-ю-ще
[V:3]cccc2 | cfdd2dddd2 |
[V:4]cccf2 | ffgd2dddg2 |
[V:1]GABAG2GFGA(B2G2)A4 |]
[V:2]EFGFE2EDEF(G2E2)F4 |]
w:сла-во-сло-вим Тя, Че-ло-ве-ко-люб--че.
[V:3]ccccc2ccccc4c4 |]
[V:4]ccccc2ccccc4f4 |]
%%newpage
